dist/img/svg/email_c.svg

<svg width="41" height="41" viewBox="0 0 41 41" fill="none" xmlns="http://www.w3.org/2000/svg">
<path d="M28.582 34.9767H11.9154C6.91536 34.9767 3.58203 32.4767 3.58203 26.6434V14.9767C3.58203 9.14339 6.91536 6.64339 11.9154 6.64339H28.582C33.582 6.64339 36.9154 9.14339 36.9154 14.9767V26.6434C36.9154 32.4767 33.582 34.9767 28.582 34.9767Z" stroke="#2453E1" stroke-width="2.5" stroke-miterlimit="10" stroke-linecap="round" stroke-linejoin="round"/>
<path d="M28.5846 15.8101L23.368 19.9767C21.6513 21.3434 18.8346 21.3434 17.118 19.9767L11.918 15.8101" stroke="#2453E1" stroke-width="2.5" stroke-miterlimit="10" stroke-linecap="round" stroke-linejoin="round"/>
</svg>

<svg width="41" height="41" viewBox="0 0 41 41" fill="none" xmlns="http://www.w3.org/2000/svg"><path d="M28.582 34.977H11.915c-5 0-8.333-2.5-8.333-8.334V14.977c0-5.834 3.333-8.334 8.333-8.334h16.667c5 0 8.333 2.5 8.333 8.334v11.666c0 5.834-3.333 8.334-8.333 8.334z" stroke="#2453E1" stroke-width="2.5" stroke-miterlimit="10" stroke-linecap="round" stroke-linejoin="round"/><path d="M28.585 15.81l-5.217 4.167c-1.717 1.366-4.533 1.366-6.25 0l-5.2-4.167" stroke="#2453E1" stroke-width="2.5" stroke-miterlimit="10" stroke-linecap="round" stroke-linejoin="round"/></svg>
